X: 32211
T: Philbin's
R: jig
M: 6/8
K: Aminor
ABA ABd|ede gab|age dBA|GAG dBG|
ABA ABd|ede gab|age dBG|ABA A2G||
ABA ABd|ede gab|age dBA|GAG gdB|
ABA ABd|ede gab|age dBG|ABA A2d||
eaa c'ag|eaa b2a|gee dBA|G2g ged|
eaa c'ag|eaa b2a|eag edB|BAG Adf||
eaa bag|eaa b2a|gee dBA|G2g ged|
eaa bag|ega b2a|age dBG|ABA A3||

